;FLAVOR:RepRap
;TIME:2367
;Filament used: 0.910845m
;Layer height: 0.2
;MINX:25.759
;MINY:219.364
;MINZ:0.3
;MAXX:55.359
;MAXY:248.964
;MAXZ:19.9
;Generated with Cura_SteamEngine 4.6.2
M104 S205
M109 S205
M82 ;absolute extrusion mode
G222
G28 ;Home
G1 Z15.0 F6000 ;Move the platform down 15mm
;Prime the extruder
G92 E0
G1 F200 E3
G92 E0
G92 E0
G92 E0
G1 F3000 E-6
;LAYER_COUNT:99
;LAYER:0
M107
G0 F1200 X51.114 Y220.862 Z0.3
;TYPE:SKIRT
G1 F3000 E0
G1 F750 X51.617 Y220.988 E0.04214
G1 X52.094 Y221.19 E0.08423
G1 X52.534 Y221.462 E0.12627
G1 X52.927 Y221.8 E0.16839
G1 X53.264 Y222.193 E0.21046
G1 X53.536 Y222.634 E0.25256
G1 X53.738 Y223.112 E0.29473
G1 X53.863 Y223.614 E0.33677
G1 X53.918 Y224.4 E0.4008
G1 X53.919 Y243.47 E1.95046
G1 X53.91 Y244.197 E2.00954
G1 X53.863 Y244.713 E2.05164
G1 X53.738 Y245.215 E2.09368
G1 X53.537 Y245.693 E2.13582
G1 X53.265 Y246.134 E2.17793
G1 X52.929 Y246.528 E2.22
G1 X52.536 Y246.865 E2.26207
G1 X52.096 Y247.138 E2.30415
G1 X51.619 Y247.341 E2.34628
G1 X51.116 Y247.467 E2.38842
G1 X50.323 Y247.523 E2.45302
G1 X31.223 Y247.524 E4.00511
G1 X30.525 Y247.515 E4.06184
G1 X30.009 Y247.468 E4.10394
G1 X29.506 Y247.343 E4.14606
G1 X29.029 Y247.142 E4.18812
G1 X28.588 Y246.869 E4.23027
G1 X28.194 Y246.533 E4.27235
G1 X27.857 Y246.14 E4.31442
G1 X27.584 Y245.699 E4.35657
G1 X27.382 Y245.222 E4.39866
G1 X27.256 Y244.72 E4.44072
G1 X27.2 Y243.913 E4.50645
G1 X27.199 Y224.793 E6.06018
G1 X27.208 Y224.128 E6.11422
G1 X27.255 Y223.612 E6.15632
G1 X27.381 Y223.109 E6.19846
G1 X27.582 Y222.632 E6.24052
G1 X27.855 Y222.191 E6.28267
G1 X28.192 Y221.797 E6.3248
G1 X28.585 Y221.46 E6.36687
G1 X29.026 Y221.188 E6.40898
G1 X29.503 Y220.986 E6.45107
G1 X30.006 Y220.86 E6.49321
G1 X30.795 Y220.805 E6.55748
G1 X49.9 Y220.804 E8.10998
G1 X50.598 Y220.814 E8.16671
G1 X51.114 Y220.862 E8.20882
G0 F1200 X51.177 Y220.143
G1 F750 X51.734 Y220.27 E8.25525
G1 X52.267 Y220.473 E8.30159
G1 X52.767 Y220.749 E8.348
G1 X53.224 Y221.092 E8.39444
G1 X53.628 Y221.496 E8.44086
G1 X53.972 Y221.951 E8.48722
G1 X54.248 Y222.451 E8.53363
G1 X54.453 Y222.984 E8.58003
G1 X54.581 Y223.54 E8.6264
G1 X54.628 Y224.059 E8.66874
G1 X54.639 Y243.479 E10.24684
G1 X54.63 Y244.206 E10.30592
G1 X54.583 Y244.775 E10.35232
G1 X54.457 Y245.331 E10.39865
G1 X54.254 Y245.865 E10.44507
G1 X53.979 Y246.366 E10.49151
G1 X53.637 Y246.823 E10.5379
G1 X53.234 Y247.228 E10.58433
G1 X52.779 Y247.572 E10.63068
G1 X52.28 Y247.85 E10.67709
G1 X51.748 Y248.055 E10.72342
G1 X51.191 Y248.184 E10.76989
G1 X50.664 Y248.233 E10.81289
G1 X31.213 Y248.244 E12.39351
G1 X30.515 Y248.235 E12.45024
G1 X29.946 Y248.187 E12.49664
G1 X29.39 Y248.061 E12.54297
G1 X28.856 Y247.858 E12.58939
G1 X28.356 Y247.583 E12.63576
G1 X27.899 Y247.241 E12.68215
G1 X27.494 Y246.838 E12.72858
G1 X27.15 Y246.382 E12.77499
G1 X26.872 Y245.883 E12.82141
G1 X26.667 Y245.351 E12.86774
G1 X26.538 Y244.794 E12.9142
G1 X26.489 Y244.265 E12.95737
G1 X26.479 Y224.783 E14.54051
G1 X26.488 Y224.118 E14.59455
G1 X26.536 Y223.549 E14.64096
G1 X26.663 Y222.992 E14.68738
G1 X26.866 Y222.458 E14.7338
G1 X27.141 Y221.958 E14.78018
G1 X27.484 Y221.502 E14.82654
G1 X27.887 Y221.097 E14.87297
G1 X28.343 Y220.753 E14.91939
G1 X28.842 Y220.476 E14.96577
G1 X29.375 Y220.271 E15.01217
G1 X29.931 Y220.143 E15.05854
G1 X30.454 Y220.095 E15.10121
G1 X49.91 Y220.084 E16.68224
G1 X50.608 Y220.094 E16.73897
G1 X51.177 Y220.143 E16.78538
G0 F1200 X51.236 Y219.423
G1 F750 X51.842 Y219.551 E16.83571
G1 X52.427 Y219.756 E16.88608
G1 X52.98 Y220.035 E16.93641
G1 X53.493 Y220.382 E16.98674
G1 X53.957 Y220.792 E17.03706
G1 X54.364 Y221.259 E17.0874
G1 X54.707 Y221.774 E17.13768
G1 X54.982 Y222.33 E17.18808
G1 X55.182 Y222.916 E17.2384
G1 X55.306 Y223.523 E17.28874
G1 X55.348 Y224.039 E17.33081
G1 X55.359 Y243.487 E18.91119
G1 X55.35 Y244.214 E18.97027
G1 X55.302 Y244.832 E19.02064
G1 X55.175 Y245.438 E19.07096
G1 X54.972 Y246.023 E19.12128
G1 X54.694 Y246.577 E19.17164
G1 X54.348 Y247.09 E19.22193
G1 X53.938 Y247.555 E19.2723
G1 X53.472 Y247.963 E19.32264
G1 X52.958 Y248.307 E19.3729
G1 X52.403 Y248.583 E19.42326
G1 X51.817 Y248.785 E19.47363
G1 X51.211 Y248.909 E19.5239
G1 X50.685 Y248.953 E19.56679
G1 X31.204 Y248.964 E21.14985
G1 X30.506 Y248.955 E21.20657
G1 X29.889 Y248.907 E21.25686
G1 X29.282 Y248.78 E21.30726
G1 X28.698 Y248.576 E21.35753
G1 X28.144 Y248.298 E21.4079
G1 X27.631 Y247.951 E21.45822
G1 X27.166 Y247.542 E21.50855
G1 X26.759 Y247.075 E21.55889
G1 X26.414 Y246.561 E21.60919
G1 X26.139 Y246.006 E21.65952
G1 X25.938 Y245.42 E21.70987
G1 X25.813 Y244.813 E21.76023
G1 X25.77 Y244.285 E21.80328
G1 X25.759 Y224.773 E23.38885
G1 X25.768 Y224.108 E23.4429
G1 X25.817 Y223.491 E23.49319
G1 X25.944 Y222.884 E23.54359
G1 X26.149 Y222.3 E23.59388
G1 X26.427 Y221.746 E23.64425
G1 X26.774 Y221.233 E23.69458
G1 X27.184 Y220.769 E23.7449
G1 X27.65 Y220.362 E23.79517
G1 X28.165 Y220.018 E23.8455
G1 X28.72 Y219.743 E23.89583
G1 X29.306 Y219.542 E23.94618
G1 X29.913 Y219.418 E23.99652
G1 X30.433 Y219.375 E24.03892
G1 X49.921 Y219.364 E25.62255
G1 X50.619 Y219.374 E25.67927
G1 X51.236 Y219.423 E25.72957
G1 F3000 E19.72957
;MESH:xyzCalibration_cube.stl
G0 F1200 X49.465 Y223.499
G0 X49.465 Y225.258
G0 X31.709 Y243.014
G0 X31.639 Y243.084
;TYPE:WALL-INNER
G1 F3000 E25.72957
G1 F750 X31.639 Y225.244 E27.17928
G1 X49.479 Y225.244 E28.62898
G1 X49.479 Y243.084 E30.07869
G1 X31.639 Y243.084 E31.5284
G0 F1200 X31.709 Y243.014
G0 X30.919 Y243.804
;TYPE:WALL-OUTER
G1 F750 X30.919 Y224.524 E33.09512
G1 X50.199 Y224.524 E34.66185
G1 X50.199 Y243.804 E36.22857
G1 X30.919 Y243.804 E37.79529
G0 F1200 X30.919 Y243.554
G0 X31.709 Y243.014
G0 X32.349 Y242.374
;TYPE:SKIN
G1 F750 X32.349 Y225.954 E39.12961
G1 X48.769 Y225.954 E40.46392
G1 X48.769 Y242.374 E41.79824
G1 X32.349 Y242.374 E43.13256
G0 F1200 X33.305 Y242.043
G1 F750 X32.678 Y241.416 E43.20461
G0 F1200 X32.678 Y240.398
G1 F750 X34.323 Y242.043 E43.39366
G0 F1200 X35.341 Y242.043
G1 F750 X32.678 Y239.38 E43.69969
G0 F1200 X32.678 Y238.362
G1 F750 X36.36 Y242.043 E44.12277
G0 F1200 X37.378 Y242.043
G1 F750 X32.678 Y237.343 E44.6629
G0 F1200 X32.678 Y236.325
G1 F750 X38.396 Y242.043 E45.32002
G0 F1200 X39.414 Y242.043
G1 F750 X32.678 Y235.307 E46.09413
G0 F1200 X32.678 Y234.289
G1 F750 X40.433 Y242.043 E46.98529
G0 F1200 X41.451 Y242.043
G1 F750 X32.678 Y233.27 E47.9935
G0 F1200 X32.678 Y232.252
G1 F750 X42.469 Y242.043 E49.11869
G0 F1200 X43.487 Y242.043
G1 F750 X32.678 Y231.234 E50.36087
G0 F1200 X32.678 Y230.216
G1 F750 X44.506 Y242.043 E51.7201
G0 F1200 X45.524 Y242.043
G1 F750 X32.678 Y229.198 E53.19633
G0 F1200 X32.678 Y228.179
G1 F750 X46.542 Y242.043 E54.78959
G0 F1200 X47.56 Y242.043
G1 F750 X32.678 Y227.161 E56.49985
G0 F1200 X32.818 Y226.283
G1 F750 X48.438 Y241.903 E58.29492
G0 F1200 X48.438 Y240.885
G1 F750 X33.837 Y226.283 E59.97295
G0 F1200 X34.855 Y226.283
G1 F750 X48.438 Y239.866 E61.53392
G0 F1200 X48.438 Y238.848
G1 F750 X35.873 Y226.283 E62.97791
G0 F1200 X36.891 Y226.283
G1 F750 X48.438 Y237.83 E64.3049
G0 F1200 X48.438 Y236.812
G1 F750 X37.91 Y226.283 E65.51485
G0 F1200 X38.928 Y226.283
G1 F750 X48.438 Y235.793 E66.60775
G0 F1200 X48.438 Y234.775
G1 F750 X39.946 Y226.283 E67.58366
G0 F1200 X40.964 Y226.283
G1 F750 X48.438 Y233.757 E68.44258
G0 F1200 X48.438 Y232.739
G1 F750 X41.983 Y226.283 E69.18446
G0 F1200 X43.001 Y226.283
G1 F750 X48.438 Y231.721 E69.80934
G0 F1200 X48.438 Y230.702
G1 F750 X44.019 Y226.283 E70.31718
G0 F1200 X45.037 Y226.283
G1 F750 X48.438 Y229.684 E70.70803
G0 F1200 X48.438 Y228.666
G1 F750 X46.055 Y226.283 E70.98189
G0 F1200 X47.074 Y226.283
G1 F750 X48.438 Y227.648 E71.1387
G0 F1200 X48.438 Y226.629
G1 F750 X48.092 Y226.283 E71.17846
;MESH:NONMESH
G0 F600 X48.092 Y226.283 Z0.5
G0 F1200 X31.709 Y243.014
G0 X31.459 Y243.264
;TIME_ELAPSED:87.536554
;LAYER:1
M106 S255
;TYPE:WALL-INNER
;MESH:xyzCalibration_cube.stl
G1 F750 X31.459 Y225.064 E71.69199
G1 X49.659 Y225.064 E72.20551
G1 X49.659 Y243.264 E72.71904
G1 X31.459 Y243.264 E73.23257
G0 F1800 X30.859 Y243.864
;TYPE:WALL-OUTER
G1 F750 X30.859 Y224.464 E73.77996
G1 X50.259 Y224.464 E74.32735
G1 X50.259 Y243.864 E74.87473
G1 X30.859 Y243.864 E75.42212
G0 F1800 X30.859 Y243.614
G0 X31.529 Y243.194
G0 X32.049 Y242.674
;TYPE:SKIN
G1 F750 X32.049 Y225.654 E75.90235
G1 X49.069 Y225.654 E76.38259
G1 X49.069 Y242.674 E76.86282
G1 X32.049 Y242.674 E77.34305
G0 F1800 X32.319 Y226.482
G1 F750 X32.877 Y225.923 E77.36534
G0 F1800 X33.726 Y225.923
G1 F750 X32.319 Y227.33 E77.42148
G0 F1800 X32.319 Y228.179
G1 F750 X34.574 Y225.923 E77.51148
G0 F1800 X35.423 Y225.923
G1 F750 X32.319 Y229.027 E77.63534
G0 F1800 X32.319 Y229.876
G1 F750 X36.271 Y225.923 E77.79306
G0 F1800 X37.12 Y225.923
G1 F750 X32.319 Y230.724 E77.98464
G0 F1800 X32.319 Y231.573
G1 F750 X37.968 Y225.923 E78.21007
G0 F1800 X38.817 Y225.923
G1 F750 X32.319 Y232.421 E78.46936
G0 F1800 X32.319 Y233.27
G1 F750 X39.665 Y225.923 E78.76251
G0 F1800 X40.514 Y225.923
G1 F750 X32.319 Y234.118 E79.08952
G0 F1800 X32.319 Y234.967
G1 F750 X41.362 Y225.923 E79.45038
G0 F1800 X42.211 Y225.923
G1 F750 X32.319 Y235.815 E79.8451
G0 F1800 X32.319 Y236.664
G1 F750 X43.059 Y225.923 E80.27369
G0 F1800 X43.908 Y225.923
G1 F750 X32.319 Y237.512 E80.73612
G0 F1800 X32.319 Y238.361
G1 F750 X44.757 Y225.923 E81.23244
G0 F1800 X45.605 Y225.923
G1 F750 X32.319 Y239.209 E81.76259
G0 F1800 X32.319 Y240.058
G1 F750 X46.454 Y225.923 E82.32663
G0 F1800 X47.302 Y225.923
G1 F750 X32.319 Y240.907 E82.92452
G0 F1800 X32.319 Y241.755
G1 F750 X48.151 Y225.923 E83.55626
G0 F1800 X48.798 Y226.124
G1 F750 X32.519 Y242.403 E84.20585
G0 F1800 X33.368 Y242.403
G1 F750 X48.798 Y226.972 E84.82157
G0 F1800 X48.798 Y227.821
G1 F750 X34.216 Y242.403 E85.40344
G0 F1800 X35.065 Y242.403
G1 F750 X48.798 Y228.669 E85.95145
G0 F1800 X48.798 Y229.518
G1 F750 X35.913 Y242.403 E86.46561
G0 F1800 X36.762 Y242.403
G1 F750 X48.798 Y230.366 E86.9459
G0 F1800 X48.798 Y231.215
G1 F750 X37.611 Y242.403 E87.39232
G0 F1800 X38.459 Y242.403
G1 F750 X48.798 Y232.063 E87.8049
G0 F1800 X48.798 Y232.912
G1 F750 X39.308 Y242.403 E88.1836
G0 F1800 X40.156 Y242.403
G1 F750 X48.798 Y233.761 E88.52844
G0 F1800 X48.798 Y234.609
G1 F750 X41.005 Y242.403 E88.83943
G0 F1800 X41.853 Y242.403
G1 F750 X48.798 Y235.458 E89.11656
G0 F1800 X48.798 Y236.306
G1 F750 X42.702 Y242.403 E89.35983
G0 F1800 X43.55 Y242.403
G1 F750 X48.798 Y237.155 E89.56924
G0 F1800 X48.798 Y238.003
G1 F750 X44.399 Y242.403 E89.74479
G0 F1800 X45.247 Y242.403
G1 F750 X48.798 Y238.852 E89.88649
G0 F1800 X48.798 Y239.7
G1 F750 X46.096 Y242.403 E89.99433
G0 F1800 X46.944 Y242.403
G1 F750 X48.798 Y240.549 E90.06831
G0 F1800 X48.798 Y241.397
G1 F750 X47.793 Y242.403 E90.10843
G0 F1800 X48.641 Y242.403
G1 F750 X48.798 Y242.246 E90.1147
;MESH:NONMESH
G0 F600 X48.798 Y242.246 Z0.7
G0 F1800 X31.529 Y243.194
G0 X31.459 Y243.264
;TIME_ELAPSED:143.726452
;LAYER:2
;TYPE:WALL-INNER
;MESH:xyzCalibration_cube.stl
G1 F750 X31.459 Y225.064 E90.62822
G1 X49.659 Y225.064 E91.14175
G1 X49.659 Y243.264 E91.65528
G1 X31.459 Y243.264 E92.16881
G0 F2400 X30.859 Y243.864
;TYPE:WALL-OUTER
G1 F750 X30.859 Y224.464 E92.7162
G1 X50.259 Y224.464 E93.26358
G1 X50.259 Y243.864 E93.81097
G1 X30.859 Y243.864 E94.35836
G0 F2400 X30.859 Y243.614
G0 X31.529 Y243.194
G0 X32.049 Y242.674
;TYPE:SKIN
G1 F750 X32.049 Y225.654 E94.83859
G1 X49.069 Y225.654 E95.31882
G1 X49.069 Y242.674 E95.79906
G1 X32.049 Y242.674 E96.27929
G0 F2400 X32.816 Y242.403
G1 F750 X32.319 Y241.905 E96.29914
G0 F2400 X32.319 Y241.056
G1 F750 X33.665 Y242.403 E96.35287
G0 F2400 X34.513 Y242.403
G1 F750 X32.319 Y240.208 E96.44044
G0 F2400 X32.319 Y239.359
G1 F750 X35.362 Y242.403 E96.56189
G0 F2400 X36.21 Y242.403
G1 F750 X32.319 Y238.511 E96.71717
G0 F2400 X32.319 Y237.662
G1 F750 X37.059 Y242.403 E96.90633
G0 F2400 X37.907 Y242.403
G1 F750 X32.319 Y236.814 E97.12933
G0 F2400 X32.319 Y235.965
G1 F750 X38.756 Y242.403 E97.38621
G0 F2400 X39.605 Y242.403
G1 F750 X32.319 Y235.117 E97.67694
G0 F2400 X32.319 Y234.268
G1 F750 X40.453 Y242.403 E98.00153
G0 F2400 X41.302 Y242.403
G1 F750 X32.319 Y233.42 E98.35999
G0 F2400 X32.319 Y232.571
G1 F750 X42.15 Y242.403 E98.75229
G0 F2400 X42.999 Y242.403
G1 F750 X32.319 Y231.723 E99.17846
G0 F2400 X32.319 Y230.874
G1 F750 X43.847 Y242.403 E99.63848
G0 F2400 X44.696 Y242.403
G1 F750 X32.319 Y230.026 E100.13237
G0 F2400 X32.319 Y229.177
G1 F750 X45.544 Y242.403 E100.66011
G0 F2400 X46.393 Y242.403
G1 F750 X32.319 Y228.329 E101.2217
G0 F2400 X32.319 Y227.48
G1 F750 X47.241 Y242.403 E101.81716
G0 F2400 X48.09 Y242.403
G1 F750 X32.319 Y226.631 E102.44649
G0 F2400 X32.459 Y225.923
G1 F750 X48.798 Y242.263 E103.09849
G0 F2400 X48.798 Y241.414
G1 F750 X33.307 Y225.923 E103.71663
G0 F2400 X34.156 Y225.923
G1 F750 X48.798 Y240.566 E104.30092
G0 F2400 X48.798 Y239.717
G1 F750 X35.004 Y225.923 E104.85134
G0 F2400 X35.853 Y225.923
G1 F750 X48.798 Y238.869 E105.36791
G0 F2400 X48.798 Y238.02
G1 F750 X36.701 Y225.923 E105.85062
G0 F2400 X37.55 Y225.923
G1 F750 X48.798 Y237.172 E106.29947
G0 F2400 X48.798 Y236.323
G1 F750 X38.398 Y225.923 E106.71446
G0 F2400 X39.247 Y225.923
G1 F750 X48.798 Y235.475 E107.0956
G0 F2400 X48.798 Y234.626
G1 F750 X40.095 Y225.923 E107.44288
G0 F2400 X40.944 Y225.923
G1 F750 X48.798 Y233.777 E107.75627
G0 F2400 X48.798 Y232.929
G1 F750 X41.792 Y225.923 E108.03584
G0 F2400 X42.641 Y225.923
G1 F750 X48.798 Y232.08 E108.28152
G0 F2400 X48.798 Y231.232
G1 F750 X43.489 Y225.923 E108.49337
G0 F2400 X44.338 Y225.923
G1 F750 X48.798 Y230.383 E108.67134
G0 F2400 X48.798 Y229.535
G1 F750 X45.186 Y225.923 E108.81547
G0 F2400 X46.035 Y225.923
G1 F750 X48.798 Y228.686 E108.92572
G0 F2400 X48.798 Y227.838
G1 F750 X46.884 Y225.923 E109.00211
G0 F2400 X47.732 Y225.923
G1 F750 X48.798 Y226.989 E109.04465
G0 F2400 X48.798 Y226.141
G1 F750 X48.581 Y225.923 E109.05333
;MESH:NONMESH
G0 F600 X48.581 Y225.923 Z0.9
G0 F2400 X31.669 Y225.273
;TIME_ELAPSED:199.079260
;LAYER:3
;TYPE:FILL
;MESH:xyzCalibration_cube.stl
G1 F1200 X49.448 Y243.053 E109.81009
G0 F2400 X48.639 Y243.053
G1 F1200 X49.448 Y242.244 E109.84452
G0 F2400 X49.448 Y234.567
G1 F1200 X40.154 Y225.273 E110.2401
G0 F2400 X40.963 Y225.273
G1 F1200 X31.669 Y234.567 E110.63569
G0 F2400 X31.669 Y233.758
G1 F1200 X40.963 Y243.053 E111.03129
G0 F2400 X40.154 Y243.053
G1 F1200 X49.448 Y233.758 E111.4269
G1 X49.554 Y233.652
G0 F2400 X49.448 Y226.082
G1 F1200 X48.639 Y225.273 E111.46133
G0 F2400 X49.448 Y225.273
G1 F1200 X31.669 Y243.053 E112.21809
G0 F2400 X31.669 Y242.244
G1 F1200 X32.478 Y243.053 E112.25252
G0 F2400 X31.669 Y226.082
G1 F1200 X32.478 Y225.273 E112.28696
G0 F2400 X31.529 Y243.194
G0 X31.459 Y243.264
;TYPE:WALL-INNER
G1 F750 X31.459 Y225.064 E112.80049
G1 X49.659 Y225.064 E113.31401
G1 X49.659 Y243.264 E113.82754
G1 X31.459 Y243.264 E114.34107
G0 F2400 X30.859 Y243.864
;TYPE:WALL-OUTER
G1 F750 X30.859 Y224.464 E114.88846
G1 X50.259 Y224.464 E115.43585
G1 X50.259 Y243.864 E115.98323
G1 X30.859 Y243.864 E116.53062
G0 F2400 X30.859 Y243.614
G0 X31.883 Y242.664
;MESH:NONMESH
G0 F600 X31.883 Y242.664 Z1.1
G0 F2400 X31.669 Y225.273
;TIME_ELAPSED:218.523377
;LAYER:4
;TYPE:FILL
;MESH:xyzCalibration_cube.stl
G1 F1200 X49.448 Y243.053 E117.28738
G0 F2400 X48.639 Y243.053
G1 F1200 X49.448 Y242.244 E117.32181
G0 F2400 X49.448 Y234.567
G1 F1200 X40.154 Y225.273 E117.71739
G0 F2400 X40.963 Y225.273
G1 F1200 X31.669 Y234.567 E118.11298
G0 F2400 X31.669 Y233.758
G1 F1200 X40.963 Y243.053 E118.50858
G0 F2400 X40.154 Y243.053
G1 F1200 X49.448 Y233.758 E118.90419
G1 X49.554 Y233.652
G0 F2400 X49.448 Y226.082
G1 F1200 X48.639 Y225.273 E118.93862
G0 F2400 X49.448 Y225.273
G1 F1200 X31.669 Y243.053 E119.69538
G0 F2400 X31.669 Y242.244
G1 F1200 X32.478 Y243.053 E119.72981
G0 F2400 X31.669 Y226.082
G1 F1200 X32.478 Y225.273 E119.76425
G0 F2400 X31.529 Y243.194
G0 X31.459 Y243.264
;TYPE:WALL-INNER
G1 F750 X31.459 Y225.064 E120.27778
G1 X49.659 Y225.064 E120.7913
G1 X49.659 Y243.264 E121.30483
G1 X31.459 Y243.264 E121.81836
G0 F2400 X30.859 Y243.864
;TYPE:WALL-OUTER
G1 F750 X30.859 Y224.464 E122.36575
G1 X50.259 Y224.464 E122.91314
